X:222
T:Derry Craig Wood
T:Mulvihill's
T:Father Grady's Trip to Brocagh
C:Charlie Mulvihill
R:reel
D:De Danann: The Mist Covered Mountain
D:Arty McGlynn & Nollaig Casey: Lead the Knave
Z:id:hn-reel-222
M:C|
K:G
Bd~d2 eB~B2|eBdB AGED|B,D~D2 EDB,D|~G3A BA~A2|
Bd~d2 eB~B2|eBdB AGED|B,DGE FGAB|1 cAFA G2GA:|2 cAFA GABc||
|:d2Bd gd~d2|edBd gdBd|e2^ce ae~e2|afge fded|
Bd~d2 gdBd|d2Bd gdBd|c2cB cBAB|1 cAFA GABc:|2 cAFA G2GA||
|:BAGE DB,EB,|DB,DG B2AB|cBAG FDDE|FEFG A2GA|
BAGE DB,EB,|DB,DG B2AB|c2cd cBAB|cAFA G2GA:|
